lib/logo_updates/nrk-logo-nrk-p2-title-below-on-light.svg

<svg width="120" height="104" viewBox="0 0 120 104" fill="none" xmlns="http://www.w3.org/2000/svg">
<path d="M0 43V1.00381H13.7802V43H0ZM32.5283 7.68773L40.4532 43H25.3721L15.9092 1.00381H24.3676C26.3072 0.978642 28.1892 1.66237 29.6607 2.92636C31.1347 4.13734 32.1473 5.81844 32.5283 7.68773ZM42.5233 43V1.00381H56.3035V43H42.5233ZM66.7116 16.9743C65.2267 16.9888 63.7656 16.6003 62.4839 15.8504C61.2193 15.1194 60.1688 14.0689 59.438 12.8041C58.6872 11.5222 58.2986 10.0607 58.3134 8.57511C58.2964 7.09861 58.6853 5.64583 59.438 4.3755C60.1766 3.12447 61.2259 2.08533 62.4839 1.35882C63.766 0.609758 65.2269 0.221301 66.7116 0.234844C68.1877 0.218947 69.6399 0.607751 70.9108 1.35882C72.1562 2.09169 73.1943 3.12996 73.9271 4.3755C74.6789 5.64618 75.0677 7.09873 75.0517 8.57511C75.0655 10.0605 74.6769 11.5218 73.9271 12.8041C73.202 14.0633 72.1627 15.113 70.9108 15.8504C69.6398 16.6029 68.1866 16.9918 66.7097 16.9743H66.7116ZM77.1807 43V1.00381H90.9621V43H77.1807ZM108.408 23.9538C108.447 23.9946 108.742 24.4776 109.295 25.403C109.848 26.3283 110.567 27.5114 111.454 28.952C112.341 30.392 113.277 31.9199 114.262 33.536C115.247 35.1521 116.174 36.6803 117.043 38.1202C117.908 39.5602 118.894 41.1867 120 43H104.859C103.912 41.4621 103.055 40.0721 102.286 38.83C101.517 37.5878 100.7 36.2471 99.8334 34.8077C98.9653 33.3698 98.1071 31.9699 97.2587 30.6081C96.4103 29.2464 95.6813 28.0536 95.0714 27.0297C94.459 26.0051 94.0348 25.3149 93.7989 24.9594C93.2139 24.0771 92.8677 23.058 92.7944 22.0019C92.853 20.9883 93.1791 20.0084 93.7397 19.1619C93.9762 18.7676 94.41 18.0675 95.0409 17.062C95.6717 16.0564 96.411 14.8637 97.2587 13.4835C98.1064 12.1034 98.9647 10.6936 99.8334 9.25431C100.702 7.81501 101.519 6.46432 102.286 5.20247C103.056 3.94193 103.914 2.54205 104.859 1.00285H120L108.289 20.1082C107.926 20.6755 107.722 21.3292 107.697 22.0019C107.736 22.7081 107.983 23.3871 108.406 23.9538H108.408Z" fill="#0A2343"/>
<path d="M28.5604 66.4414C27.8328 65.3189 26.8976 64.3448 25.805 63.5714C24.5879 62.7208 23.2363 62.0809 21.8064 61.6784C20.0701 61.2001 18.2742 60.9714 16.4732 60.9992H0V102.999H6.22195V87.9145H16.9482C19.3686 87.951 21.7571 87.36 23.8802 86.199C25.915 85.0737 27.6048 83.4171 28.7688 81.4065C30.0168 79.188 30.6413 76.6741 30.5762 74.1305C30.5813 72.756 30.4225 71.3858 30.1031 70.0488C29.7947 68.7686 29.2733 67.5492 28.5604 66.4414ZM23.0495 79.1892C22.254 80.4369 21.082 81.4002 19.7026 81.9399C18.0284 82.5724 16.2469 82.8738 14.4574 82.8273H6.22099V66.1456H15.2881C17.0197 66.0804 18.7432 66.4141 20.325 67.1207C21.5829 67.7276 22.6112 68.7234 23.2571 69.9601C23.9422 71.3473 24.2781 72.8803 24.2358 74.4263C24.304 76.0944 23.8923 77.7471 23.0495 79.1892Z" fill="#AB0058"/>
<path d="M42.6455 97.9107C43.5838 97.1082 44.5477 96.2722 45.5669 95.3671C46.989 94.1058 48.4212 92.7354 49.8631 91.2558C51.305 89.7763 52.6777 88.2387 53.9813 86.6428C55.248 85.098 56.4062 83.4677 57.4478 81.7635C58.4209 80.1797 59.2157 78.4933 59.8179 76.7353C60.3771 75.1173 60.6675 73.4188 60.6773 71.7072C60.7055 70.109 60.3818 68.5242 59.7292 67.0645C59.0825 65.6859 58.1301 64.4722 56.9441 63.5153C55.5869 62.4416 54.0242 61.6561 52.3518 61.2072C50.2963 60.6463 48.1717 60.3775 46.0409 60.4087C44.6603 60.4051 43.2822 60.5238 41.9227 60.7636C40.6294 60.9922 39.3599 61.3391 38.1302 61.7998C36.9575 62.238 35.8188 62.7616 34.723 63.3664L35.4934 68.5128C36.4317 67.8848 37.435 67.3593 38.4858 66.9453C39.6274 66.4873 40.8073 66.1309 42.0117 65.8804C43.2394 65.6241 44.4903 65.4956 45.7446 65.497C47.0582 65.4702 48.3681 65.6494 49.626 66.0283C50.6281 66.3347 51.5491 66.8601 52.3222 67.5664C53.0182 68.2147 53.5553 69.0142 53.8923 69.903C54.2369 70.8404 54.4076 71.8326 54.396 72.8311C54.3761 74.5072 54.0344 76.1639 53.3889 77.7113C52.6389 79.5287 51.6845 81.2554 50.5445 82.8579C49.217 84.741 47.7724 86.5389 46.2189 88.2409C44.5597 90.0747 42.7524 91.9085 40.7969 93.7423C38.8415 95.5761 36.8167 97.4395 34.723 99.3324L35.4934 103H61.1513L61.8624 97.9117L42.6455 97.9107Z" fill="#AB0058"/>
</svg>

<svg xmlns="http://www.w3.org/2000/svg" viewBox="0 0 120 104"><path fill="#0A2343" d="M0 43V1.004h13.78V43H0ZM32.528 7.688 40.453 43h-15.08L15.908 1.004h8.459a7.965 7.965 0 0 1 5.293 1.922 8.31 8.31 0 0 1 2.867 4.762ZM42.523 43V1.004h13.78V43h-13.78Zm24.189-26.026a8.213 8.213 0 0 1-4.228-1.124 8.336 8.336 0 0 1-3.046-3.046 8.206 8.206 0 0 1-1.125-4.229 8.056 8.056 0 0 1 1.125-4.2 8.437 8.437 0 0 1 3.046-3.016A8.232 8.232 0 0 1 66.712.235a8.083 8.083 0 0 1 4.199 1.124 8.503 8.503 0 0 1 3.016 3.016 8.075 8.075 0 0 1 1.125 4.2 8.226 8.226 0 0 1-1.125 4.23 8.4 8.4 0 0 1-3.016 3.045 8.059 8.059 0 0 1-4.201 1.124h.002ZM77.18 43V1.004h13.781V43H77.181Zm31.227-19.046c.039.04.334.524.887 1.449.553.925 1.272 2.108 2.159 3.549a1143.28 1143.28 0 0 1 5.589 9.168A854.89 854.89 0 0 0 120 43h-15.141c-.947-1.538-1.804-2.928-2.573-4.17a382.214 382.214 0 0 1-2.453-4.022 351.934 351.934 0 0 0-2.574-4.2 213.445 213.445 0 0 1-2.188-3.578 62.753 62.753 0 0 0-1.272-2.07 6.119 6.119 0 0 1-1.005-2.958 5.744 5.744 0 0 1 .946-2.84c.236-.394.67-1.095 1.3-2.1.632-1.006 1.371-2.198 2.219-3.579.847-1.38 1.706-2.79 2.574-4.229.869-1.439 1.686-2.79 2.453-4.052.77-1.26 1.628-2.66 2.573-4.2H120l-11.711 19.106a3.773 3.773 0 0 0-.592 1.894c.039.706.286 1.385.709 1.952h.002Z"/><path fill="#AB0058" d="M28.56 66.441a10.542 10.542 0 0 0-2.755-2.87 13.245 13.245 0 0 0-3.999-1.893A18.98 18.98 0 0 0 16.473 61H0v42h6.222V87.915h10.726c2.42.036 4.81-.555 6.932-1.716a12.813 12.813 0 0 0 4.889-4.793 14.104 14.104 0 0 0 1.807-7.276 17.29 17.29 0 0 0-.473-4.081c-.308-1.28-.83-2.5-1.543-3.608ZM23.05 79.19a6.989 6.989 0 0 1-3.347 2.75 13.826 13.826 0 0 1-5.246.888H6.221V66.146h9.067a11.307 11.307 0 0 1 5.037.975 6.488 6.488 0 0 1 2.932 2.84 9.499 9.499 0 0 1 .979 4.465 8.732 8.732 0 0 1-1.187 4.763ZM42.645 97.91a206.07 206.07 0 0 0 2.922-2.543 81.827 81.827 0 0 0 4.296-4.111 70.578 70.578 0 0 0 4.118-4.613 43.345 43.345 0 0 0 3.467-4.88 25.213 25.213 0 0 0 2.37-5.028c.56-1.618.85-3.316.86-5.028a10.903 10.903 0 0 0-.949-4.642 10.039 10.039 0 0 0-2.785-3.55 12.714 12.714 0 0 0-4.592-2.308 22.71 22.71 0 0 0-6.311-.798 23.357 23.357 0 0 0-4.118.355A21.454 21.454 0 0 0 38.13 61.8a25.582 25.582 0 0 0-3.407 1.566l.77 5.147a15.779 15.779 0 0 1 2.993-1.568 20.899 20.899 0 0 1 3.526-1.065 18.167 18.167 0 0 1 3.733-.383 12.57 12.57 0 0 1 3.881.531 7.056 7.056 0 0 1 2.696 1.538 6.194 6.194 0 0 1 1.57 2.337 8.21 8.21 0 0 1 .504 2.928 13.079 13.079 0 0 1-1.007 4.88 25.968 25.968 0 0 1-2.845 5.147 54.942 54.942 0 0 1-4.325 5.383 94.241 94.241 0 0 1-5.422 5.501 452.67 452.67 0 0 1-6.074 5.59l.77 3.668h25.658l.711-5.088-19.217-.001Z"/></svg>
